img/mdi_teacher.svg

<svg width="60" height="60" viewBox="0 0 60 60" fill="none" xmlns="http://www.w3.org/2000/svg">
<g id="mdi:teacher">
<path id="Vector" d="M50 42.5C51.3261 42.5 52.5979 41.9732 53.5355 41.0355C54.4732 40.0979 55 38.8261 55 37.5V10C55 8.67392 54.4732 7.40215 53.5355 6.46447C52.5979 5.52678 51.3261 5 50 5H23.65C24.525 6.525 25 8.25 25 10H50V37.5H27.5V42.5M37.5 17.5V22.5H22.5V55H17.5V40H12.5V55H7.5V35H3.75V22.5C3.75 21.1739 4.27678 19.9021 5.21447 18.9645C6.15215 18.0268 7.42392 17.5 8.75 17.5H37.5ZM20 10C20 11.3261 19.4732 12.5979 18.5355 13.5355C17.5979 14.4732 16.3261 15 15 15C13.6739 15 12.4021 14.4732 11.4645 13.5355C10.5268 12.5979 10 11.3261 10 10C10 8.67392 10.5268 7.40215 11.4645 6.46447C12.4021 5.52678 13.6739 5 15 5C16.3261 5 17.5979 5.52678 18.5355 6.46447C19.4732 7.40215 20 8.67392 20 10Z" fill="white"/>
</g>
</svg>

<svg xmlns="http://www.w3.org/2000/svg" width="60" height="60" fill="none"><path fill="#fff" d="M50 42.5a5 5 0 0 0 5-5V10a5 5 0 0 0-5-5H23.65A10.07 10.07 0 0 1 25 10h25v27.5H27.5v5m10-25v5h-15V55h-5V40h-5v15h-5V35H3.75V22.5a5 5 0 0 1 5-5zM20 10a5 5 0 1 1-10 0 5 5 0 0 1 10 0"/></svg>
